X: 1
T: Polska efter Bak Per
R: Boda-polska
O: Sweden
Z: 2009 John Chambers <jc:trillian.mit.edu>
S: handwritten MS by JC from the 1970s
M: 3/4
L: 1/8
K: G
D \
|: "G"G>G- G>B d>g | b>b- b>a g>d \
| G>G- G>A B>c | "C"e>e- e>d c>B \
| "D7"A>A- A>G F>A |
| f>f- f>e d>e \
|1,3 f>f- f>e d>c | e>e- e>d B>A \
:|2,4 "D7"f>f- f>e d>F | "G"G2 G4 :|
A/B/ \
|: "C"c2 E3 c | "G"B2 D3 B \
| "D7"A>G F>D E>F |1,3 "G"G>A B>c d>B :|2,4 "G"G2 G4 :|
